!!!OTL: 693. Die Ueberschwemmung in Leipzig.
!!!COM: Volksmelodie
!!!ARE: Europa, Mitteleuropa, Deutschland
!!!SCT: B0693
!!!TXL: @@DE
!!!YEM: Copyright 1995, estate of Helmut Schaffrath.
**kern	**text
*ICvox	*
*Ivox	*
*clefG2	*
*M3/4	*
*k[b-]	*
*F:	*
=1	=1
!LO:TX:a:t=Mäßig.	!
{8c	Jn
8a	der
8a	gro-
8a	-ßen
8g	Set-
8f	-ſtadt
=2	=2
8fL	Leip-
8eJ	.
4e	-ʒig
4r}	.
=3	=3
{8c	war
8b-	jüngſt
8b-	ei-
8b-	-ne
8a	Waſ-
8g	-ſers-
=4	=4
(4g	-noth;
4a)	.
4r}	.
=5	=5
{8f	Menſchen
8ff	.
8ff	ſtürʒ-
8ff	-ten
8ff	ein
8ff	wohl
=6	=6
(4dd	drei-
4ff)	.
8eeL	-ßig,
8ddJ}	.
=7	=7
{8cc	Häuſer
8cc	.
8dd	blie-
8cc	-ben
8b-	noch
8e	mehr
=8	=8
(4g	todt.
4f)	.
4r}	.
=9	=9
{8f	Menſchen
8ff	.
8ff	ſtürʒ-
8ff	-ten
8ff	ein
8ff	wohl
=10	=10
(4dd	drei-
4ff)	.
8eeL	-ßig,
8ddJ}	.
=11	=11
{8cc	Häuſer
8cc	.
8dd	blie-
8cc	-ben
8b-	noch
8e	mehr
=12	=12
(4g	todt.
4f)	.
4r}	.
==	==
!!!AGN: Scherz - Lied
!!!GTL: Scherzlieder und Gemischtes
!!!ONB: ESAC (Essen Associative Code) Database: BOEHME
!!!AMT: simple triple
!!!AIN: vox
!!!EED: Helmut Schaffrath
!!!EEV: 1.0
!!@@COMMENT:"Dieſes Scherʒlied ſteht ſeit 1830 in vielen Studenten- und Taſchenliederbüchern und mag
!!um dieſe Ʒeit durch Studenten entſtanden ſein. Die Melodie iſt weſentlich dieſelbe wie ʒu Goethes
!!Liede: "Kleine Blumen, kleine Blätter" (Nr. 409)."
!!@@END:
!!!URL-scan: https://archive.org/details/BoehmeVtLieder1895/page/n545/mode/2up
!!!ENC: Anna Maria Matuszewska
!!!EEV: 2024/17/07
*-	*-
